assets/images/bloomberg.svg

<svg width="144" height="32" viewBox="0 0 144 32" fill="none" xmlns="http://www.w3.org/2000/svg">
<g clip-path="url(#clip0_757_44431)">
<path d="M128.963 25.5319H134.165C134.367 26.1879 135.054 26.8439 136.34 26.8439C138.082 26.8439 138.682 25.7621 138.682 24.1625V23.0231H138.566C137.707 24.0244 136.565 24.7609 134.881 24.7609C131.564 24.7609 128.68 22.3096 128.68 17.5164C128.68 13.126 131.051 9.70234 134.627 9.70234C136.686 9.70234 137.944 10.5309 138.774 11.8429H138.861V10.1627H144.006V23.4489C144.006 25.9002 143.146 27.8106 141.86 28.9556C140.516 30.1525 138.601 30.6358 136.427 30.6358C132.337 30.6358 129.482 28.9499 128.963 25.5319ZM138.913 17.2575C138.913 15.3471 138.001 13.805 136.427 13.805C134.91 13.805 133.94 15.1745 133.94 17.2575C133.94 19.3117 134.915 20.7905 136.427 20.7905C137.995 20.7963 138.913 19.283 138.913 17.2575ZM122.935 12.7808H123.022C124.135 10.6403 125.594 9.84619 127.451 9.84619C127.878 9.84619 128.167 9.90373 128.34 9.99004V14.6969H128.224C125.052 14.1273 123.195 15.6406 123.195 19.0873V25.5032H117.79V10.1627H122.935V12.7808ZM0 4H10.5786C12.5802 4 14.1202 4.48335 15.2104 5.36948C16.439 6.36495 17.0966 7.84951 17.0966 9.61603C17.0966 11.6702 16.266 12.9534 14.5529 13.7532V13.8396C16.7851 14.5818 18.0714 16.5785 18.0714 19.001C18.0714 21.3084 17.1831 23.1094 15.7295 24.1912C14.5009 25.0774 12.9032 25.5032 10.7863 25.5032H0V4ZM10.0653 20.7387C11.3516 20.7387 12.2918 19.9677 12.2918 18.5407C12.2918 17.0561 11.2651 16.3426 10.0365 16.3426H5.86036V20.733H10.0653V20.7387ZM9.51732 12.4125C10.6594 12.4125 11.49 11.7853 11.49 10.5309C11.49 9.3053 10.6306 8.70687 9.48848 8.70687H5.86036V12.4125H9.51732Z" fill="white"/>
<path d="M19.0404 4H24.5835V25.5032H19.0404V4ZM25.6448 17.8559C25.6448 13.011 28.7884 9.73111 33.6509 9.73111C38.5134 9.73111 41.5993 13.011 41.5993 17.8559C41.5993 22.7354 38.5134 25.9808 33.6509 25.9808C28.7884 25.9865 25.6448 22.7354 25.6448 17.8559ZM36.1081 17.8559C36.1081 15.1745 35.2487 13.4943 33.5932 13.4943C31.9378 13.4943 31.136 15.1745 31.136 17.8559C31.136 20.5661 31.9378 22.2463 33.5932 22.2463C35.2487 22.2521 36.1081 20.5661 36.1081 17.8559ZM42.228 17.8559C42.228 13.011 45.3717 9.73111 50.2341 9.73111C55.0966 9.73111 58.1825 13.011 58.1825 17.8559C58.1825 22.7354 55.0966 25.9808 50.2341 25.9808C45.3717 25.9865 42.228 22.7354 42.228 17.8559ZM52.6913 17.8559C52.6913 15.1745 51.8319 13.4943 50.1765 13.4943C48.521 13.4943 47.7193 15.1745 47.7193 17.8559C47.7193 20.5661 48.521 22.2463 50.1765 22.2463C51.8319 22.2521 52.6913 20.5661 52.6913 17.8559ZM59.2381 10.1627H64.3832V12.4701H64.4697C65.4965 10.6748 66.8981 9.70234 69.1015 9.70234C71.0453 9.70234 72.5047 10.669 73.2487 12.355H73.3353C74.5927 10.3295 76.2251 9.70234 78.1112 9.70234C81.6874 9.70234 83.2275 12.3262 83.2275 15.8592V25.4974H77.8228V16.8317C77.8228 15.2608 77.3383 14.2366 75.9655 14.2366C74.6216 14.2366 73.9352 15.491 73.9352 17.1482V25.5032H68.5247V16.8317C68.5247 15.2608 68.0402 14.2366 66.6674 14.2366C65.3234 14.2366 64.637 15.491 64.637 17.1482V25.5032H59.2381V10.1627ZM89.8262 23.5065H89.7685V25.5032H84.6234V4H90.0281V11.7566H90.1146C91.1413 10.4158 92.5141 9.70234 94.4868 9.70234C98.3456 9.70234 100.578 13.1836 100.578 17.7984C100.578 23.0174 98.1495 26.0095 94.1465 26.0095C92.4853 26.0153 90.7722 25.2155 89.8262 23.5065ZM95.0867 17.7466C95.0867 15.2666 94.1753 13.6669 92.543 13.6669C90.8875 13.6669 89.8262 15.2666 89.8262 17.7466C89.8262 20.1979 90.8817 21.8263 92.543 21.8263C94.1984 21.8205 95.0867 20.2266 95.0867 17.7466ZM101.264 17.8041C101.264 13.011 104.437 9.67932 109.04 9.67932C111.324 9.67932 113.1 10.3928 114.444 11.676C116.215 13.385 117.017 16.0664 116.959 19.2312H106.64C106.871 21.1415 107.782 22.114 109.415 22.114C110.361 22.114 111.185 21.6882 111.531 20.6582H116.734C115.823 24.1624 113.106 25.9347 109.247 25.9347C104.466 25.929 101.264 22.7067 101.264 17.8041ZM106.64 16.2045H111.555C111.468 14.3517 110.441 13.3792 109.155 13.3792C107.667 13.3792 106.836 14.438 106.64 16.2045Z" fill="white"/>
</g>
<defs>
<clipPath id="clip0_757_44431">
<rect width="144" height="32" fill="white"/>
</clipPath>
</defs>
</svg>

<svg width="144" height="32" fill="none" xmlns="http://www.w3.org/2000/svg"><g clip-path="url(#clip0_757_44431)" fill="#fff"><path d="M128.963 25.532h5.202c.202.656.889 1.312 2.175 1.312 1.742 0 2.342-1.082 2.342-2.681v-1.14h-.116c-.859 1.001-2.001 1.738-3.685 1.738-3.317 0-6.201-2.451-6.201-7.245 0-4.39 2.371-7.814 5.947-7.814 2.059 0 3.317.829 4.147 2.14h.087v-1.68h5.145V23.45c0 2.451-.86 4.362-2.146 5.507-1.344 1.197-3.259 1.68-5.433 1.68-4.09 0-6.945-1.686-7.464-5.104zm9.95-8.274c0-1.91-.912-3.453-2.486-3.453-1.517 0-2.487 1.37-2.487 3.453 0 2.054.975 3.533 2.487 3.533 1.568.005 2.486-1.508 2.486-3.534zm-15.978-4.477h.087c1.113-2.14 2.572-2.935 4.429-2.935.427 0 .716.058.889.144v4.707h-.116c-3.172-.57-5.029.944-5.029 4.39v6.416h-5.405v-15.34h5.145v2.618zM0 4h10.579c2.001 0 3.541.483 4.631 1.37 1.229.995 1.887 2.48 1.887 4.246 0 2.054-.831 3.337-2.544 4.137v.087c2.232.742 3.518 2.738 3.518 5.161 0 2.307-.888 4.108-2.342 5.19-1.228.886-2.826 1.312-4.943 1.312H0V4zm10.065 16.739c1.287 0 2.227-.771 2.227-2.198 0-1.485-1.027-2.198-2.255-2.198H5.86v4.39h4.205v.006zm-.548-8.327c1.142 0 1.973-.627 1.973-1.881 0-1.226-.86-1.824-2.002-1.824H5.86v3.705h3.657zM19.04 4h5.544v21.503H19.04V4zm6.605 13.856c0-4.845 3.143-8.125 8.006-8.125 4.862 0 7.948 3.28 7.948 8.125 0 4.88-3.086 8.125-7.948 8.125-4.863.005-8.006-3.246-8.006-8.125zm10.463 0c0-2.682-.86-4.362-2.515-4.362-1.655 0-2.457 1.68-2.457 4.362 0 2.71.802 4.39 2.457 4.39 1.656.006 2.515-1.68 2.515-4.39zm6.12 0c0-4.845 3.144-8.125 8.006-8.125 4.863 0 7.948 3.28 7.948 8.125 0 4.88-3.085 8.125-7.948 8.125-4.862.005-8.006-3.246-8.006-8.125zm10.463 0c0-2.682-.86-4.362-2.515-4.362-1.655 0-2.457 1.68-2.457 4.362 0 2.71.802 4.39 2.457 4.39 1.656.006 2.515-1.68 2.515-4.39zm6.547-7.693h5.145v2.307h.087c1.026-1.795 2.428-2.768 4.632-2.768 1.943 0 3.403.967 4.147 2.653h.086c1.258-2.026 2.89-2.653 4.776-2.653 3.576 0 5.117 2.624 5.117 6.157v9.638h-5.405v-8.665c0-1.571-.485-2.595-1.857-2.595-1.344 0-2.03 1.254-2.03 2.911v8.355h-5.411v-8.671c0-1.571-.485-2.595-1.858-2.595-1.344 0-2.03 1.254-2.03 2.911v8.355h-5.399v-15.34zm30.588 13.343h-.057v1.997h-5.146V4h5.405v7.757h.087c1.026-1.341 2.4-2.055 4.372-2.055 3.859 0 6.091 3.482 6.091 8.096 0 5.22-2.428 8.212-6.431 8.212-1.662.005-3.375-.795-4.32-2.504zm5.26-5.76c0-2.48-.91-4.08-2.543-4.08-1.656 0-2.717 1.6-2.717 4.08 0 2.452 1.056 4.08 2.717 4.08 1.655-.006 2.544-1.6 2.544-4.08zm6.178.058c0-4.793 3.173-8.125 7.776-8.125 2.284 0 4.06.714 5.404 1.997 1.771 1.709 2.573 4.39 2.515 7.555H106.64c.231 1.91 1.142 2.883 2.775 2.883.946 0 1.77-.426 2.116-1.456h5.203c-.911 3.504-3.628 5.277-7.487 5.277-4.781-.006-7.983-3.228-7.983-8.13zm5.376-1.6h4.915c-.087-1.852-1.114-2.825-2.4-2.825-1.488 0-2.319 1.059-2.515 2.825z"/></g><defs><clipPath id="clip0_757_44431"><path fill="#fff" d="M0 0h144v32H0z"/></clipPath></defs></svg>
